Obsidian-SemiLight/actions/24s/zoom-next.svg

<svg viewBox="0 0 24 24" xmlns="http://www.w3.org/2000/svg"><path d="m4 4v1 2h1v-2h2v-1h-2zm13 0v1h2v2h1v-2-1h-1zm-6.285156 4.3242188-.707032.7070312 1.802735 1.800781 1.167969 1.167969-1.167969 1.167969-1.802735 1.800781.707032.707031 1.802734-1.800781 1.875-1.875-1.875-1.875zm-6.714844 8.6757812v2 1h3v-1h-2v-2zm15 0v2h-2v1h3v-3z" fill="#4d4d4d"/></svg>

<svg xmlns="http://www.w3.org/2000/svg" viewBox="0 0 24 24">
  <defs id="defs3051">
    <style type="text/css" id="current-color-scheme">
      .ColorScheme-Text {
        color:#4d4d4d;
      }
      </style>
  </defs>
 <path style="fill:currentColor;fill-opacity:1;stroke:none" 
     d="M 4 4 L 4 5 L 4 7 L 5 7 L 5 5 L 7 5 L 7 4 L 5 4 L 4 4 z M 17 4 L 17 5 L 19 5 L 19 7 L 20 7 L 20 5 L 20 4 L 19 4 L 17 4 z M 10.714844 8.3242188 L 10.007812 9.03125 L 11.810547 10.832031 L 12.978516 12 L 11.810547 13.167969 L 10.007812 14.96875 L 10.714844 15.675781 L 12.517578 13.875 L 14.392578 12 L 12.517578 10.125 L 10.714844 8.3242188 z M 4 17 L 4 19 L 4 20 L 7 20 L 7 19 L 5 19 L 5 17 L 4 17 z M 19 17 L 19 19 L 17 19 L 17 20 L 20 20 L 20 17 L 19 17 z "
     class="ColorScheme-Text"
     />
</svg>
